X:1
T:I Have Christ in My Heart
T:I Have Christ in My Heart
T:Wendell Phillips Loveless
T:Wendell Phillips Loveless, 1940
T:© 1940, renewed 1968, Hope Publishing Company
T:© 1940, renewed 1968, Hope Publishing Company
C:Wendell Phillips Loveless
Z:© 1940, renewed 1968, Hope Publishing Company
%%score 1 ( 2 3 )
L:1/8
Q:1/4=100
M:4/4
K:G
V:1 treble 
V:2 bass 
V:3 bass 
V:1
 [B,D]2 [B,D]2 [B,^D]>[B,D] [B,D]>[B,D] | [B,E]>[B,E] [B,E]>[B,E] (3[B,F][B,F][B,F] [B,G]>[CA] | %2
w: What though wars may come, With|march- ing feet and beat of the drum, For|
 [DB]2 [DB]2 [DB]2 [DA]>[DG] | [CF]8 | [CD]2 [CD]2 [C^D]>[CD] [CD]>[CD] | %5
w: I have Christ in my|heart;|What though na- tions rage, As|
 [CE]>[CE] [CE]>[CE] (3[CF][CF][CF] [CG]>[CA] | [Dc]2 [Ec]2 [Fc]2 [FB]>[F^A] | [GB]8 | %8
w: we ap- proach the end of the age, For|I have Christ in my|heart.|
 [Gd]2 [Fd]2 (3[=Fd][FB][Fc] [Fd]>[FG] | [EB]>[EA] [EA]>[E^G] [EA]4 | %10
w: God is still on the throne, Al-|might- y God is He;|
 [_Ec]2 [Ec]2 (3[Ec][EA][EB] [Ec]>[EG] | [DB]>[CA] [CA]>[B,^G] [CA]4 | %12
w: And He cares for His own through|all e- ter- ni- ty.|
 [B,D]2 [B,D]2 [B,^D]>[B,D] [B,D]>[B,D] | (3[B,E][B,E][B,E] [B,E]>[B,F] [B,G]>[CA] [DB]>[Dc] | %14
w: So let come what may, what-|ev- er it is, I on- ly say That|
 [Dd]2 [Ed]2 [=Fd]2 [FB]>[FG] | [Ee]8 | [EA]2 [EB]2 [Ec]2 [Fd]>[Fd] | [Gg]8 |] %18
w: I have Christ in my|heart,|I have Christ in my|heart.|
V:2
 [G,,G,]2 [G,,G,]2 [G,,G,]>[G,,G,] [G,,G,]>[G,,G,] | %1
w: ~ ~ ~ ~ ~ ~|
 [G,,G,]>[G,,G,] [G,,G,]>[G,,G,] (3[G,,D,][G,,D,][G,,D,] [D,G,]>[D,G,] | %2
w: ~ ~ ~ ~ ~ ~ ~ ~ ~|
 G,2 [D,G,]2 [G,,G,]2 [A,,F,]>[B,,G,] | A,8 | [D,F,]2 [D,F,]2 [D,F,]>[D,F,] [D,F,]>[D,F,] | %5
w: ~ ~ ~ ~ ~|~|my heart, ~ ~ ~ ~|
 [D,G,]>[D,G,] [D,G,]>[D,G,] (3[D,A,][D,A,][D,A,] [D,G,]>[D,F,] | %6
w: ~ ~ ~ ~ ~ ~ ~ ~ ~|
 [D,F,]2 [D,G,]2 [D,A,]2 [D,D]>[D,D] | [G,D]8 | %8
w: ~ ~ ~ ~ ~|~|
 [G,B,]2 [G,B,]2 (3[G,B,][G,B,][G,B,] [G,B,]>[G,B,] | [C,C]>[C,C] [C,C]>[C,C] [C,C]4 | %10
w: ~ ~ ~ ~ ~ ~ ~|~ ~ ~ ~ ~|
 [C,A,]2 [C,A,]2 (3[C,A,][C,A,][C,A,] [C,G,]>[C,G,] | [D,F,]>[D,F,] [D,F,]>[D,^E,] [D,F,]4 | %12
w: ~ ~ ~ ~ ~ ~ ~|~ ~ ~ ~ ~|
 [G,,G,]2 [G,,G,]2 [G,,G,]>[G,,G,] [G,,G,]>[G,,G,] | %13
w: ~ ~ ~ ~ ~ ~|
 (3[G,,G,][G,,G,][G,,G,] [G,,G,]>[G,,G,] [D,G,]>[D,G,] [D,G,]>[D,A,] | %14
w: ~ ~ ~ ~ ~ ~ ~ ~ ~|
 [G,B,]2 [G,B,]2 [G,B,]2 G,>G, | G,8 | [C,A,]2 [B,,^G,]2 [A,,A,]2 [D,A,]>[D,C] | [G,B,]8 |] %18
w: ~ ~ ~ ~ ~|~|~ ~ in my heart,||
V:3
 x8 | x8 | G,2 x6 | D,2 A,,2 D,4 | x8 | x8 | x8 | x8 | x8 | x8 | x8 | x8 | x8 | x8 | x6 G,>G, | %15
 C,2 E,G, C,4 | x8 | x8 |] %18

